src/assets/img/icons/duotone-icons/Devices/Usb-storage.svg

<?xml version="1.0" encoding="UTF-8"?>
<svg width="24px" height="24px" viewBox="0 0 24 24" version="1.1" xmlns="http://www.w3.org/2000/svg" xmlns:xlink="http://www.w3.org/1999/xlink">
    <!-- Generator: Sketch 52.2 (67145) - http://www.bohemiancoding.com/sketch -->
    <title>Stockholm-icons / Devices / Usb-storage</title>
    <desc>Created with Sketch.</desc>
    <g id="Stockholm-icons-/-Devices-/-Usb-storage" stroke="none" stroke-width="1" fill="none" fill-rule="evenodd">
        <rect id="bound" x="0" y="0" width="24" height="24"></rect>
        <path d="M11.5,17.4497475 L6.55025253,12.5 C6.15972824,12.1094757 6.15972824,11.4763107 6.55025253,11.0857864 L13.6213203,4.01471863 C14.4023689,3.23367004 15.6686989,3.23367004 16.4497475,4.01471863 L19.9852814,7.55025253 C20.76633,8.33130112 20.76633,9.59763107 19.9852814,10.3786797 L12.9142136,17.4497475 C12.5236893,17.8402718 11.8905243,17.8402718 11.5,17.4497475 Z" id="Rectangle-53" fill="#335EEA"></path>
        <path d="M6.90380592,19.9246212 L4.0753788,17.0961941 C3.88011665,16.9009319 3.88011665,16.5843494 4.0753788,16.3890873 L6.55025253,13.9142136 L10.0857864,17.4497475 L7.6109127,19.9246212 C7.41565056,20.1198833 7.09906807,20.1198833 6.90380592,19.9246212 Z" id="Combined-Shape" fill="#335EEA" opacity="0.3"></path>
    </g>
</svg>

<svg width="24" height="24" viewBox="0 0 24 24" xmlns="http://www.w3.org/2000/svg"><g fill="none" fill-rule="evenodd"><path d="M0 0h24v24H0z"/><path d="M11.5 17.45L6.55 12.5a1 1 0 010-1.414l7.071-7.071a2 2 0 012.829 0l3.535 3.535a2 2 0 010 2.829l-7.07 7.07a1 1 0 01-1.415 0z" fill="#335EEA"/><path d="M6.904 19.925l-2.829-2.829a.5.5 0 010-.707l2.475-2.475 3.536 3.536-2.475 2.475a.5.5 0 01-.707 0z" fill="#335EEA" opacity=".3"/></g></svg>
